X:1
T:Divine Protection, 86.886
T:Divine Protection, 86.886
T:Jeremiah Ingalls, 1800
T:Public Domain Courtesy of the Cyber Hymnal™
C:Jeremiah Ingalls, 1800
Z:Public Domain
Z:Courtesy of the Cyber Hymnal™
%%score ( 1 2 ) ( 3 4 )
L:1/8
Q:1/4=115
M:4/4
K:C
V:1 treble 
V:2 treble 
V:3 bass 
V:4 bass 
V:1
 [Gc]4 [EG]2 [DF]2 | E2 [EG]2 (cd) ([Ee][Fc]) | [Gd]4 [Gd]4 | [Ge]2 [Ge]2 [Gd]2 c2 | [Bd]6 G2 | %5
 [Gc]2 [EA]2 [EA]2 [Ac]2 | [Gf]2 [Bd]2 [Bd]2 [Bd]2 | [ce]2 [Ac]2 [Ac]2 [Ac]2 | (dcBAGA) (BG) | %9
 [Gc]6 [Ge]2 | (g3 f e2) (fd) | [Gc]4 B4 | [Ec]4 |] %13
V:2
 x8 | E2 E2 x4 | x8 | x6 c2 | x6 G2 | x8 | x8 | x8 | B6 G2 | x8 | G6 A2 | x4 (G2 F2) | x4 |] %13
V:3
 [C,C]4 [C,C]2 [D,A,]2 | [E,G,]2 [E,G,]2 A,2 [A,C]2 | [G,D]4 [G,D]4 | C2 C2 [B,D]2 (EF) | %4
 [G,G]6 [G,D]2 | [CE]2 [A,E]2 [A,E]2 [A,E]2 | D2 [G,D]2 [G,D]2 [G,G]2 | %7
 [C,E]2 [C,E]2 [E,E]2 [A,E]2 | [G,D]6 [G,G]2 | [C,E]6 C2 | (C3 D E2) (CD) | [F,C]4 [G,D]4 | %12
 [C,E]4 |] %13
V:4
 x8 | x4 A,2 x2 | x8 | C2 C2 A,2 x2 | x8 | x8 | D2 x6 | x8 | x8 | x6 C2 | C6 A,2 | x8 | x4 |] %13

